X:40
T: Éva, szívem, Éva
K: F
M: 2/4
L: 1/4
g g | d>e | f d | 
g g | d>c | B G | 
c c | G>A | B G | 
c c | G>F | G G | 

